X: 9540
T: Dashing White Eejit
R: reel
M: 4/4
K: Amajor
|:AEEA F3A|EFAB cBBc|AEAc Bdce|d2cA BAFB|
AEEA F3A|EFAB cBBc|d2cA BAFA|1 EAec BAAB:|2 EAcB BAAE||
FBBA B3d|c3c BAFA|EAA FAA (3Bcd|edcA BAFE|
FBBA B3d|c3c BAFA|EAA FAA (3Bcd|edce dcBA|
FBBA B3c|d2cA BAFA|EAA FAA (3Bcd|edcA BAFE|
FBBA B3c|d2cA BAFA|EAA FAA GA|A FAA EFAB||

